X:184
T:Dingle Regatta
S:Colin Hume's website,  colinhume.com  - chords can also be printed below the stave.
Q:3/8=120
%%subtitlefont Times-Roman 28
M:6/8
K:G
P:A
|: "G"d^cd e2d | "G"B^AB d2B | "D7"A3 AGA | "G"B2A G3 |\
"G"d^cd e2d | "Em"B^AB d2B | "D7"A3 ABA | "G"G3 z3 :|
P:B
|: "D"d3 def | "Em"g3 gfg | "D7"a3 aga | "G"b2a gfe |\
"D"d3 def | "Em"g3 gfg | "Am"a2g f2e | "D7"def "G"g3 :|
P:C
|: "G"gbg dgd | "G"BdB G3 | "D7"FGA DEF | "G"G2B "D7"d3 |\
"G"gbg dgd | "G"BdB G3 | "D7"FGA DEF | "G"G3 z3 :|
N:Replace by blank line and X field
T:The Sweets of May
Q:3/8=120
M:6/8
L:1/8
K:G
P:A
|: d2c | "G"BAG "D7"AGF | "G"G2G Gdc | "G"B2G "Em"GAB | "Am"c3 "D7"d2c |\
"G"BAG "D7"AGF | "G"G2G Gdc | "Em"B2B "D7"cAF | "G"G3 :|
P:B
|: z3 | "Am"ABA A2G | "Em"E2F G3 | "Am"ABA c2d | "Em"e2d c2B |\
"Am"ABA A2G | "Em"E2F G3 | "Am"A2A "G"BAG | "Am"A3 :|
P:C
|: zBc | "G"d3 d^cd | "G"D3 z3 | "Am"c3 cBc | "D7"Dz2 DEF |\
"G"G2D G2A | "Em"B2G B2c | "D7"d2d cBA | "G"G3 :|

